X:1
T:Title
%%score { ( 1 3 ) | ( 2 4 ) }
L:1/8
Q:1/4=80
M:2/4
K:F
V:1 treble nm="Grand Piano"
V:3 treble 
V:2 bass 
V:4 bass 
V:1
 F2 CA | F2 CA | cA/F/ [EG][EB]/[EG]/ | F4 | F2 C[FA] | F2 C[FA] | cA/F/ [EG][EB]/[B,EG]/ | %7
 [A,CF]4 | [CAc]2 [FA][Af] | [Ac]2 A[Af] | [CAc][CFc] [Bd]/c/[GB]/A/ | G4 | [A,CF]2 [A,C][CFA] | %13
 [A,CF]2 [A,C][A,FA] | [Ec].[FA] [DFG][CB]/G/ | F4 |] %16
V:2
 [F,A,C]2 [F,A,][F,CF] | [F,A,C]2 [F,A,][F,CF] | [F,A,F][F,CF]/[F,A,]/ [C,C][C,G,]/[C,B,]/ | %3
 [F,A,C]4 | [F,A,C]2 [F,A,][C,C] | [F,A,C]2 [F,A,][C,C] | [F,A,F].[F,CF] [C,C][C,G,]/C,/ | F,4 | %8
 F,2 F,[F,C] | [F,C]2 [F,F][F,C] | F,A, z/ .AF/ | z2 CB, | F,2 F,C, | F,2 F,D, | %14
 .[A,,A,]>F .B,,>B, | [F,A,C]4 |] %16
V:3
 x4 | x4 | x4 | x4 | x4 | x4 | x4 | x4 | x4 | x4 | z2 z D | E2 z2 | x4 | x4 | z2 z E | x4 |] %16
V:4
 x4 | x4 | x4 | x4 | x4 | x4 | x4 | x4 | x4 | x4 | z2 B,B,, | C,4 | x4 | x4 | z [D,A,] z C, | x4 |] %16

